X:114
T:Deck The Halls
C:Old Welsh Air
L:1/4
M:4/4
Q:1/4=160
P:BABABAB
V:S
%%MIDI program 1 56 %Trumpet
V:A
%%MIDI program 2 60 %French Horn
V:T clef=treble_8
%%MIDI program 3 57 %Trombone
%%score (S A) T
K:Cmaj
P:A
[V:S]
G3/2 F/2 E D | C D E C | D/2E/2 F/2D/2 E3/2 D/2 | C B, C2 |
G3/2 F/2 E D | C D E C | D/2E/2 F/2D/2 E3/2 D/2 | C B, C2 |
D3/2 E/2 F D | E3/2 F/2 G D | E/2^F/2 G A/2B/2 c | B A G2 |
%
[V:A]
E3/2 D/2 C B, | A, B, C G, | B,/2C/2 D/2B,/2 C3/2 B,/2 | G, G, G,2 |
E3/2 D/2 C B, | A, B, C G, | B,/2C/2 D/2B,/2 C3/2 B,/2 | G, G, G,2 |
B,3/2 C/2 D B, | C3/2 C/2 C D | C D E E | D C B,2 |
%
w:1~Deck the halls with boughs of hol-ly ||| 'Tis the sea-son to be jol-ly ||| Don we now our gay ap-par-el |||
%
w:2~See the bla-zing Yule be-fore us Fa-la-la-la-la, la-la-la-la Strike the harp and join the chor-us Fa-la-la-la-la, la-la-la-la Fol-low me in mer-ry mea-sure Fa-la-la-la-la-la-la,
%
w:3~Fast a-way the old year pas-ses ||| Hail the new year, lads and las-ses ||| Sing we joy-ous, all to-ge-ther |||
%
[V:T]
G,3/2 G,/2 G, F, | E, G, G, E, | G,/2 G,/2 G,/2 G,/2 G,3/2 F,/2 | E, D, E,2 |
G,3/2 G,/2 G, F, | E, G, G, E, | G,/2 G,/2 G,/2 G,/2 G,3/2 F,/2 | E, D, E,2 |
G,3/2 G,/2 G, G, | G,3/2 D,/2 E, G, | G, G, G, G, | G, ^F, G,2 |
%
P:B
[V:S]
G3/2 F/2 E D | C D E C | A/2A/2 A/2A/2 G3/2 F/2 | E D C2 x/|]
%
[V:A]
E3/2 D/2 C B, | A, B, C G, | C/2 C/2 C/2 C/2 C3/2 A,/2 | G, B, G,2 x/|]
%
w: Troll the an-cient Yule-tide car-ol
%
w: While I tell of Yule-tide trea-sure Fa-la-la-la-la, la-la-la-la
%
w: Heed-less of the wind and wea-ther
%
[V:T]
G,3/2 G,/2 G, F, | E, G, G, E, | F,/2 F,/2 F,/2 F,/2 E,3/2 D,/2 | C, D, E,2 x/|]


